plasma/desktoptheme/ROUNDED-COLOR/icons/update.svg

<svg xmlns="http://www.w3.org/2000/svg" id="svg29" width="32" height="32" version="1.1">
<defs id="rounded">
    <style type="text/css" id="current-color-scheme">
        .ColorScheme-Text {
        color:#eff0f1;
        }
        .ColorScheme-NegativeText {
        color:#da4453;
        }
        .ColorScheme-Highlight {
        color:#3daee9;
        }
        .ColorScheme-Background {
        color:#31363b;
      }
      .ColorScheme-ButtonBackground {
        color:#444c53;
      }
    </style>
</defs>
 <g id="22-22-update-none" transform="translate(2.3706055e-7,-22)">
  <rect id="rect924" style="opacity:0.001" width="22" height="22" x="0" y="0"/>
  <path id="path845" style="opacity:1;fill:currentColor" class="ColorScheme-Text" d="M 10.943359,3 C 8.6336808,3.0179358 6.3655781,4.0323219 4.8144531,5.921875 2.3326531,8.9452117 2.4041219,13.331962 4.9824219,16.273438 L 5.734375,15.615234 C 3.474175,13.036616 3.4121906,9.2089877 5.5878906,6.5585938 7.7635896,3.9081998 11.5304,3.2210469 14.5,4.9355469 L 14,5.8046875 16.480469,5.5039062 15.5,3.2050781 15,4.0722656 C 13.729688,3.3388594 12.329167,2.9892385 10.943359,3 Z m 6.072266,2.7285156 -0.751953,0.6582032 c 2.260199,2.578617 2.322184,6.4042932 0.146484,9.0546872 C 14.234457,18.091799 10.4696,18.777 7.5,17.0625 L 8,16.195312 5.5175781,16.496094 6.5,18.794922 7,17.929688 c 3.3875,1.95575 7.701694,1.171721 10.183594,-1.851563 1.2409,-1.511668 1.844413,-3.365256 1.814453,-5.207031 C 18.968085,9.0293179 18.304775,7.1992536 17.015625,5.7285156 Z M 11,6 7,10 h 2 v 3 a 2,2 0 0 0 2,2 2,2 0 0 0 2,-2 v -3 h 2 z"/>
 </g>
 <g id="22-22-update-high" transform="translate(32,-22)">
  <rect id="rect952" style="opacity:0.001" width="22" height="22" x="0" y="0"/>
  <g id="g886" transform="translate(8.1050043e-5,-0.00114965)">
   <path id="path873" style="opacity:1;fill:currentColor" class="ColorScheme-Text" transform="translate(-22.000081,0.00114965)" d="m 32.943359,3 c -2.309678,0.017936 -4.577781,1.0323219 -6.128906,2.921875 -2.4818,3.023337 -2.410331,7.408133 0.167969,10.349609 l 0.751953,-0.658203 C 25.474175,13.034664 25.412191,9.2089877 27.587891,6.5585938 29.76359,3.9081998 33.5304,3.2210469 36.5,4.9355469 L 36,5.8027344 38.480469,5.5039062 37.5,3.2050781 37,4.0703125 C 35.729688,3.3369063 34.329167,2.9892387 32.943359,3 Z m 6.072266,2.7265625 -0.751953,0.6582031 c 1.498615,1.7097401 2.023814,3.9662774 1.578125,6.0664064 0.319793,0.167527 0.615456,0.377776 0.878906,0.625 0.193608,-0.721967 0.289408,-1.46347 0.277344,-2.205078 -0.02996,-1.8417767 -0.693272,-3.6737935 -1.982422,-5.1445315 z m -6.017578,0.2714844 -4,4 h 2 V 12.998047 H 31 a 2,2 0 0 0 0,0.002 2,2 0 0 0 2,2 2,2 0 0 0 2,-2 2,2 0 0 0 -0.002,-0.04687 V 9.9980469 h 2 z M 30,16.195312 27.517578,16.494141 28.5,18.792969 29,17.927734 c 1.898066,1.095835 4.087429,1.33136 6.082031,0.794922 -0.246556,-0.26464 -0.456152,-0.561622 -0.623047,-0.882812 C 32.81481,18.190618 31.049915,17.955391 29.5,17.060547 Z"/>
   <path id="path875" style="opacity:1;fill:currentColor" class="ColorScheme-NegativeText" d="m 16,13 a 2.9999907,2.9999907 0 0 0 -3,3 2.9999907,2.9999907 0 0 0 3,3 2.9999907,2.9999907 0 0 0 3,-3 2.9999907,2.9999907 0 0 0 -3,-3 z"/>
  </g>
 </g>
 <g id="22-22-update-low" transform="translate(96,-22)">
  <rect id="rect944" style="opacity:0.001" width="22" height="22" x="0" y="0"/>
  <g id="g904" transform="translate(8.1050043e-5,-0.00114965)">
   <path id="path891" style="opacity:1;fill:currentColor" class="ColorScheme-Text" transform="translate(-66.000081,0.00114965)" d="m 76.943359,3 c -2.309678,0.017936 -4.577781,1.0323219 -6.128906,2.921875 -2.4818,3.023337 -2.410331,7.408133 0.167969,10.349609 l 0.751953,-0.658203 C 69.474175,13.034664 69.412191,9.2089877 71.587891,6.5585938 73.76359,3.9081998 77.5304,3.2210469 80.5,4.9355469 L 80,5.8027344 82.480469,5.5039062 81.5,3.2050781 81,4.0703125 C 79.729688,3.3369063 78.329167,2.9892387 76.943359,3 Z m 6.072266,2.7265625 -0.751953,0.6582031 c 1.498615,1.7097401 2.023814,3.9662774 1.578125,6.0664064 0.319793,0.167527 0.615456,0.377776 0.878906,0.625 0.193608,-0.721967 0.289408,-1.46347 0.277344,-2.205078 -0.02996,-1.8417767 -0.693272,-3.6737935 -1.982422,-5.1445315 z m -6.017578,0.2714844 -4,4 h 2 V 12.998047 H 75 a 2,2 0 0 0 0,0.002 2,2 0 0 0 2,2 2,2 0 0 0 2,-2 2,2 0 0 0 -0.002,-0.04687 V 9.9980469 h 2 z M 74,16.195312 71.517578,16.494141 72.5,18.792969 73,17.927734 c 1.898066,1.095835 4.087429,1.33136 6.082031,0.794922 -0.246556,-0.26464 -0.456152,-0.561622 -0.623047,-0.882812 C 76.81481,18.190618 75.049915,17.955391 73.5,17.060547 Z"/>
   <path id="path893" style="opacity:1;fill:currentColor" class="ColorScheme-Highlight" d="m 16,13 a 2.9999907,2.9999907 0 0 0 -3,3 2.9999907,2.9999907 0 0 0 3,3 2.9999907,2.9999907 0 0 0 3,-3 2.9999907,2.9999907 0 0 0 -3,-3 z"/>
  </g>
 </g>
 <g id="22-22-update-medium" transform="translate(64,-22)">
  <rect id="rect938" style="opacity:0.001" width="22" height="22" x="0" y="0"/>
  <g id="g922" transform="translate(8.1050043e-5,-0.00114965)">
   <path id="path909" style="opacity:1;fill:currentColor" class="ColorScheme-Text" transform="translate(-44.000081,0.00114965)" d="m 54.943359,3 c -2.309678,0.017936 -4.577781,1.0323219 -6.128906,2.921875 -2.4818,3.023337 -2.410331,7.408133 0.167969,10.349609 l 0.751953,-0.658203 C 47.474175,13.034664 47.412191,9.2089877 49.587891,6.5585938 51.76359,3.9081998 55.5304,3.2210469 58.5,4.9355469 L 58,5.8027344 60.480469,5.5039062 59.5,3.2050781 59,4.0703125 C 57.729688,3.3369063 56.329167,2.9892387 54.943359,3 Z m 6.072266,2.7265625 -0.751953,0.6582031 c 1.498615,1.7097401 2.023814,3.9662774 1.578125,6.0664064 0.319793,0.167527 0.615456,0.377776 0.878906,0.625 0.193608,-0.721967 0.289408,-1.46347 0.277344,-2.205078 -0.02996,-1.8417767 -0.693272,-3.6737935 -1.982422,-5.1445315 z m -6.017578,0.2714844 -4,4 h 2 V 12.998047 H 53 a 2,2 0 0 0 0,0.002 2,2 0 0 0 2,2 2,2 0 0 0 2,-2 2,2 0 0 0 -0.002,-0.04687 V 9.9980469 h 2 z M 52,16.195312 49.517578,16.494141 50.5,18.792969 51,17.927734 c 1.898066,1.095835 4.087429,1.33136 6.082031,0.794922 -0.246556,-0.26464 -0.456152,-0.561622 -0.623047,-0.882812 C 54.81481,18.190618 53.049915,17.955391 51.5,17.060547 Z"/>
   <path id="path911" style="opacity:1;fill:#f67400" d="m 16,13 a 2.9999907,2.9999907 0 0 0 -3,3 2.9999907,2.9999907 0 0 0 3,3 2.9999907,2.9999907 0 0 0 3,-3 2.9999907,2.9999907 0 0 0 -3,-3 z"/>
  </g>
 </g>
 <g id="update-high" transform="translate(32)">
  <rect id="rect832" style="opacity:0.001" width="32" height="32" x="0" y="0"/>
  <path id="path840" style="opacity:1;fill:currentColor" class="ColorScheme-Text" d="M 15.982422,3.9921875 A 12,12 0 0 0 7.4785156,7.5 12,12 0 0 0 6.8046875,23.730469 L 7.515625,23.021484 A 11,11 0 0 1 8.1855469,8.2070312 11,11 0 0 1 21.490234,6.4921875 L 20.626953,8.0234375 24.222656,7.7558594 22.591797,4.5390625 21.980469,5.625 A 12,12 0 0 0 15.982422,3.9921875 Z m 9.140625,4.2480469 -0.708985,0.7089844 a 11,11 0 0 1 2.451172,8.4218752 c 0.329532,0.133871 0.644886,0.296271 0.935547,0.49414 A 12,12 0 0 0 25.123047,8.2402344 Z M 16,9 10,15 h 3 v 4 c 0,1.656756 1.343071,2.999999 3,3 1.65693,1e-6 3,-1.343243 3,-3 v -4 h 3.001953 z m -4.628906,14.962891 -3.5937502,0.28125 0.4550781,0.888671 -0.00977,0.0098 a 12,12 0 0 0 0.023438,0.01758 l 1.171875,2.292969 0.5976561,-1.066406 a 12,12 0 0 0 12.25391,-0.210974 C 21.9716,25.97993 21.694765,25.756933 21.445312,25.503906 A 11,11 0 0 1 10.5,25.517578 Z"/>
  <path id="path882" style="opacity:1;fill:currentColor" class="ColorScheme-NegativeText" d="m 25,18 a 3.9999876,3.9999876 0 0 0 -4,4 3.9999876,3.9999876 0 0 0 4,4 3.9999876,3.9999876 0 0 0 4,-4 3.9999876,3.9999876 0 0 0 -4,-4 z"/>
 </g>
 <g id="update-none" transform="translate(62.746876,-1.6340332)">
  <rect id="rect895" style="opacity:0.001" width="32" height="32" x="-62.75" y="1.63"/>
  <path id="path897" style="opacity:1;fill:currentColor" class="ColorScheme-Text" d="m -46.764455,5.6262208 a 12,12 0 0 0 -8.503907,3.5078125 12,12 0 0 0 -0.673828,16.2304687 l 0.710938,-0.708985 A 11,11 0 0 1 -54.56133,9.8410645 11,11 0 0 1 -41.256643,8.1262208 l -0.863281,1.53125 3.595703,-0.2675781 -1.630859,-3.2167969 -0.611328,1.0859375 a 12,12 0 0 0 -5.998047,-1.6328125 z m 9.140625,4.2480469 -0.708985,0.7089843 a 11,11 0 0 1 -0.671874,14.814453 11,11 0 0 1 -13.242188,1.753906 l 0.871094,-1.554687 -3.59375,0.28125 0.455078,0.888671 -0.0098,0.0098 a 12,12 0 0 0 0.02344,0.01758 l 1.171875,2.292969 0.597656,-1.066406 a 12,12 0 0 0 14.433594,-1.916016 12,12 0 0 0 0.673828,-16.2304683 z m -9.123047,0.7597653 -6,6 h 3 v 4 c 0,1.656756 1.343071,2.999999 3,3 1.65693,1e-6 3,-1.343243 3,-3 v -4 h 3.001953 z"/>
 </g>
 <g id="update-medium" transform="translate(64)">
  <rect id="rect929" style="opacity:0.001" width="32" height="32" x="0" y="0"/>
  <path id="path931" style="opacity:1;fill:currentColor" class="ColorScheme-Text" d="M 15.982422,3.9921875 A 12,12 0 0 0 7.4785156,7.5 12,12 0 0 0 6.8046875,23.730469 L 7.515625,23.021484 A 11,11 0 0 1 8.1855469,8.2070312 11,11 0 0 1 21.490234,6.4921875 L 20.626953,8.0234375 24.222656,7.7558594 22.591797,4.5390625 21.980469,5.625 A 12,12 0 0 0 15.982422,3.9921875 Z m 9.140625,4.2480469 -0.708985,0.7089844 a 11,11 0 0 1 2.451172,8.4218752 c 0.329532,0.133871 0.644886,0.296271 0.935547,0.49414 A 12,12 0 0 0 25.123047,8.2402344 Z M 16,9 10,15 h 3 v 4 c 0,1.656756 1.343071,2.999999 3,3 1.65693,1e-6 3,-1.343243 3,-3 v -4 h 3.001953 z m -4.628906,14.962891 -3.5937502,0.28125 0.4550781,0.888671 -0.00977,0.0098 a 12,12 0 0 0 0.023438,0.01758 l 1.171875,2.292969 0.5976561,-1.066406 a 12,12 0 0 0 12.25391,-0.210974 C 21.9716,25.97993 21.694765,25.756933 21.445312,25.503906 A 11,11 0 0 1 10.5,25.517578 Z"/>
  <path id="path933" style="opacity:1;fill:#f67400" d="m 25,18 a 3.9999876,3.9999876 0 0 0 -4,4 3.9999876,3.9999876 0 0 0 4,4 3.9999876,3.9999876 0 0 0 4,-4 3.9999876,3.9999876 0 0 0 -4,-4 z"/>
 </g>
 <g id="update-low" transform="translate(96)">
  <rect id="rect937" style="opacity:0.001" width="32" height="32" x="0" y="0"/>
  <path id="path939" style="opacity:1;fill:currentColor" class="ColorScheme-Text" d="M 15.982422,3.9921875 A 12,12 0 0 0 7.4785156,7.5 12,12 0 0 0 6.8046875,23.730469 L 7.515625,23.021484 A 11,11 0 0 1 8.1855469,8.2070312 11,11 0 0 1 21.490234,6.4921875 L 20.626953,8.0234375 24.222656,7.7558594 22.591797,4.5390625 21.980469,5.625 A 12,12 0 0 0 15.982422,3.9921875 Z m 9.140625,4.2480469 -0.708985,0.7089844 a 11,11 0 0 1 2.451172,8.4218752 c 0.329532,0.133871 0.644886,0.296271 0.935547,0.49414 A 12,12 0 0 0 25.123047,8.2402344 Z M 16,9 10,15 h 3 v 4 c 0,1.656756 1.343071,2.999999 3,3 1.65693,1e-6 3,-1.343243 3,-3 v -4 h 3.001953 z m -4.628906,14.962891 -3.5937502,0.28125 0.4550781,0.888671 -0.00977,0.0098 a 12,12 0 0 0 0.023438,0.01758 l 1.171875,2.292969 0.5976561,-1.066406 a 12,12 0 0 0 12.25391,-0.210974 C 21.9716,25.97993 21.694765,25.756933 21.445312,25.503906 A 11,11 0 0 1 10.5,25.517578 Z"/>
  <path id="path941" style="opacity:1;fill:currentColor" class="ColorScheme-Highlight" d="m 25,18 a 3.9999876,3.9999876 0 0 0 -4,4 3.9999876,3.9999876 0 0 0 4,4 3.9999876,3.9999876 0 0 0 4,-4 3.9999876,3.9999876 0 0 0 -4,-4 z"/>
 </g>
</svg>

<svg xmlns="http://www.w3.org/2000/svg" id="svg29" width="22" height="22" version="1.1">
<defs id="rounded">
    <style type="text/css" id="current-color-scheme">
        .ColorScheme-Text {
        color:#eff0f1;
        }
        .ColorScheme-NegativeText {
        color:#da4453;
        }
        .ColorScheme-Highlight {
        color:#3daee9;
        }
        .ColorScheme-Background {
        color:#31363b;
      }
      .ColorScheme-ButtonBackground {
        color:#444c53;
      }
    </style>
</defs>
 <g id="update-none">
  <rect id="rect924" style="opacity:0.001" width="22" height="22" x="0" y="0"/>
  <path id="path845" style="opacity:1;fill:currentColor" class="ColorScheme-Text" d="M 10.943359 3 C 8.6336808 3.0179358 6.3655781 4.0323219 4.8144531 5.921875 C 2.3326531 8.9452117 2.4041219 13.331962 4.9824219 16.273438 L 5.734375 15.615234 C 3.474175 13.036616 3.4121906 9.2089877 5.5878906 6.5585938 C 7.7635896 3.9081998 11.5304 3.2210469 14.5 4.9355469 L 14 5.8046875 L 16.480469 5.5039062 L 15.5 3.2050781 L 15 4.0722656 C 13.729688 3.3388594 12.329167 2.9892385 10.943359 3 z M 17.015625 5.7285156 L 16.263672 6.3867188 C 18.523871 8.9653358 18.585856 12.791012 16.410156 15.441406 C 14.234457 18.091799 10.4696 18.777 7.5 17.0625 L 8 16.195312 L 5.5175781 16.496094 L 6.5 18.794922 L 7 17.929688 C 10.3875 19.885438 14.701694 19.101409 17.183594 16.078125 C 18.424494 14.566457 19.028007 12.712869 18.998047 10.871094 C 18.968085 9.0293179 18.304775 7.1992536 17.015625 5.7285156 z M 11 6 L 7 10 L 9 10 L 9 13 A 2 2 0 0 0 11 15 A 2 2 0 0 0 13 13 L 13 10 L 15 10 L 11 6 z"/>
 </g>
 <g id="update-high" transform="translate(22)">
  <rect id="rect952" style="opacity:0.001" width="22" height="22" x="0" y="0"/>
  <g id="g886" transform="translate(8.1050043e-5,-0.00114965)">
   <path id="path873" style="opacity:1;fill:currentColor" class="ColorScheme-Text" transform="translate(-22.000081,0.00114965)" d="M 32.943359 3 C 30.633681 3.0179358 28.365578 4.0323219 26.814453 5.921875 C 24.332653 8.945212 24.404122 13.330008 26.982422 16.271484 L 27.734375 15.613281 C 25.474175 13.034664 25.412191 9.2089877 27.587891 6.5585938 C 29.76359 3.9081998 33.5304 3.2210469 36.5 4.9355469 L 36 5.8027344 L 38.480469 5.5039062 L 37.5 3.2050781 L 37 4.0703125 C 35.729688 3.3369063 34.329167 2.9892387 32.943359 3 z M 39.015625 5.7265625 L 38.263672 6.3847656 C 39.762287 8.0945057 40.287486 10.351043 39.841797 12.451172 C 40.16159 12.618699 40.457253 12.828948 40.720703 13.076172 C 40.914311 12.354205 41.010111 11.612702 40.998047 10.871094 C 40.968085 9.0293173 40.304775 7.1973005 39.015625 5.7265625 z M 32.998047 5.9980469 L 28.998047 9.9980469 L 30.998047 9.9980469 L 30.998047 12.998047 L 31 12.998047 A 2 2 0 0 0 31 13 A 2 2 0 0 0 33 15 A 2 2 0 0 0 35 13 A 2 2 0 0 0 34.998047 12.953125 L 34.998047 9.9980469 L 36.998047 9.9980469 L 32.998047 5.9980469 z M 30 16.195312 L 27.517578 16.494141 L 28.5 18.792969 L 29 17.927734 C 30.898066 19.023569 33.087429 19.259094 35.082031 18.722656 C 34.835475 18.458016 34.625879 18.161034 34.458984 17.839844 C 32.81481 18.190618 31.049915 17.955391 29.5 17.060547 L 30 16.195312 z"/>
   <path id="path875" style="opacity:1;fill:currentColor" class="ColorScheme-NegativeText" d="m 16,13 a 2.9999907,2.9999907 0 0 0 -3,3 2.9999907,2.9999907 0 0 0 3,3 2.9999907,2.9999907 0 0 0 3,-3 2.9999907,2.9999907 0 0 0 -3,-3 z"/>
  </g>
 </g>
 <g id="update-low" transform="translate(66)">
  <rect id="rect944" style="opacity:0.001" width="22" height="22" x="0" y="0"/>
  <g id="g904" transform="translate(8.1050043e-5,-0.00114965)">
   <path id="path891" style="opacity:1;fill:currentColor" class="ColorScheme-Text" transform="translate(-66.000081,0.00114965)" d="M 76.943359 3 C 74.633681 3.0179358 72.365578 4.0323219 70.814453 5.921875 C 68.332653 8.945212 68.404122 13.330008 70.982422 16.271484 L 71.734375 15.613281 C 69.474175 13.034664 69.412191 9.2089877 71.587891 6.5585938 C 73.76359 3.9081998 77.5304 3.2210469 80.5 4.9355469 L 80 5.8027344 L 82.480469 5.5039062 L 81.5 3.2050781 L 81 4.0703125 C 79.729688 3.3369063 78.329167 2.9892387 76.943359 3 z M 83.015625 5.7265625 L 82.263672 6.3847656 C 83.762287 8.0945057 84.287486 10.351043 83.841797 12.451172 C 84.16159 12.618699 84.457253 12.828948 84.720703 13.076172 C 84.914311 12.354205 85.010111 11.612702 84.998047 10.871094 C 84.968085 9.0293173 84.304775 7.1973005 83.015625 5.7265625 z M 76.998047 5.9980469 L 72.998047 9.9980469 L 74.998047 9.9980469 L 74.998047 12.998047 L 75 12.998047 A 2 2 0 0 0 75 13 A 2 2 0 0 0 77 15 A 2 2 0 0 0 79 13 A 2 2 0 0 0 78.998047 12.953125 L 78.998047 9.9980469 L 80.998047 9.9980469 L 76.998047 5.9980469 z M 74 16.195312 L 71.517578 16.494141 L 72.5 18.792969 L 73 17.927734 C 74.898066 19.023569 77.087429 19.259094 79.082031 18.722656 C 78.835475 18.458016 78.625879 18.161034 78.458984 17.839844 C 76.81481 18.190618 75.049915 17.955391 73.5 17.060547 L 74 16.195312 z"/>
   <path id="path893" style="opacity:1;fill:currentColor" class="ColorScheme-Highlight" d="m 16,13 a 2.9999907,2.9999907 0 0 0 -3,3 2.9999907,2.9999907 0 0 0 3,3 2.9999907,2.9999907 0 0 0 3,-3 2.9999907,2.9999907 0 0 0 -3,-3 z"/>
  </g>
 </g>
 <g id="update-medium" transform="translate(44)">
  <rect id="rect938" style="opacity:0.001" width="22" height="22" x="0" y="0"/>
  <g id="g922" transform="translate(8.1050043e-5,-0.00114965)">
   <path id="path909" style="opacity:1;fill:currentColor" class="ColorScheme-Text" transform="translate(-44.000081,0.00114965)" d="M 54.943359 3 C 52.633681 3.0179358 50.365578 4.0323219 48.814453 5.921875 C 46.332653 8.945212 46.404122 13.330008 48.982422 16.271484 L 49.734375 15.613281 C 47.474175 13.034664 47.412191 9.2089877 49.587891 6.5585938 C 51.76359 3.9081998 55.5304 3.2210469 58.5 4.9355469 L 58 5.8027344 L 60.480469 5.5039062 L 59.5 3.2050781 L 59 4.0703125 C 57.729688 3.3369063 56.329167 2.9892387 54.943359 3 z M 61.015625 5.7265625 L 60.263672 6.3847656 C 61.762287 8.0945057 62.287486 10.351043 61.841797 12.451172 C 62.16159 12.618699 62.457253 12.828948 62.720703 13.076172 C 62.914311 12.354205 63.010111 11.612702 62.998047 10.871094 C 62.968085 9.0293173 62.304775 7.1973005 61.015625 5.7265625 z M 54.998047 5.9980469 L 50.998047 9.9980469 L 52.998047 9.9980469 L 52.998047 12.998047 L 53 12.998047 A 2 2 0 0 0 53 13 A 2 2 0 0 0 55 15 A 2 2 0 0 0 57 13 A 2 2 0 0 0 56.998047 12.953125 L 56.998047 9.9980469 L 58.998047 9.9980469 L 54.998047 5.9980469 z M 52 16.195312 L 49.517578 16.494141 L 50.5 18.792969 L 51 17.927734 C 52.898066 19.023569 55.087429 19.259094 57.082031 18.722656 C 56.835475 18.458016 56.625879 18.161034 56.458984 17.839844 C 54.81481 18.190618 53.049915 17.955391 51.5 17.060547 L 52 16.195312 z"/>
   <path id="path911" style="opacity:1;fill:#f67400" d="m 16,13 a 2.9999907,2.9999907 0 0 0 -3,3 2.9999907,2.9999907 0 0 0 3,3 2.9999907,2.9999907 0 0 0 3,-3 2.9999907,2.9999907 0 0 0 -3,-3 z"/>
  </g>
 </g>
</svg>
